src/assets/images/checkedIcon.svg

<svg fill="none" height="54" viewBox="0 0 54 54" width="54" xmlns="http://www.w3.org/2000/svg" xmlns:xlink="http://www.w3.org/1999/xlink"><linearGradient id="a" gradientUnits="userSpaceOnUse" x1=".381922" x2="53.618" y1="25.0573" y2="28.276"><stop offset=".15" stop-color="#74de9f"/><stop offset="1" stop-color="#74de9f" stop-opacity=".72"/></linearGradient><path d="m27 0c-14.72 0-26.666687 11.9467-26.666687 26.6667s11.946687 26.6666 26.666687 26.6666 26.6666-11.9466 26.6666-26.6666-11.9466-26.6667-26.6666-26.6667zm0 48c-11.76 0-21.33335-9.5733-21.33335-21.3333s9.57335-21.33337 21.33335-21.33337 21.3333 9.57337 21.3333 21.33337-9.5733 21.3333-21.3333 21.3333zm12.24-33.12-17.5734 17.5733-6.9066-6.88-3.76 3.76 10.6666 10.6667 21.3334-21.3333z" fill="url(#a)"/></svg>

<svg width="54" height="54" viewBox="0 0 54 54" fill="none" xmlns="http://www.w3.org/2000/svg">
<path d="M27 0C12.28 0 0.333313 11.9467 0.333313 26.6667C0.333313 41.3867 12.28 53.3333 27 53.3333C41.72 53.3333 53.6666 41.3867 53.6666 26.6667C53.6666 11.9467 41.72 0 27 0ZM27 48C15.24 48 5.66665 38.4267 5.66665 26.6667C5.66665 14.9067 15.24 5.33333 27 5.33333C38.76 5.33333 48.3333 14.9067 48.3333 26.6667C48.3333 38.4267 38.76 48 27 48ZM39.24 14.88L21.6666 32.4533L14.76 25.5733L11 29.3333L21.6666 40L43 18.6667L39.24 14.88Z" fill="url(#paint0_linear_1158_14064)"/>
<defs>
<linearGradient id="paint0_linear_1158_14064" x1="0.381922" y1="25.0573" x2="53.618" y2="28.276" gradientUnits="userSpaceOnUse">
<stop offset="0.15" stop-color="#74DE9F"/>
<stop offset="1" stop-color="#74DE9F" stop-opacity="0.72"/>
</linearGradient>
</defs>
</svg>
